ix/24-support_outline.svg

<svg viewBox="0 0 24 24" fill="none" xmlns="http://www.w3.org/2000/svg" height="1em" width="1em">
  <path d="M12 22.75C11.3 22.75 10.59 22.48 10.06 21.95L8.35001 20.26C7.92001 19.84 7.35999 19.61 6.75999 19.61H6C3.93 19.61 2.25 17.94 2.25 15.89V4.97998C2.25 2.92998 3.93 1.26001 6 1.26001H18C20.07 1.26001 21.75 2.92998 21.75 4.97998V15.89C21.75 17.94 20.07 19.61 18 19.61H17.24C16.64 19.61 16.07 19.84 15.65 20.26L13.94 21.95C13.41 22.48 12.7 22.75 12 22.75ZM6 2.75C4.76 2.75 3.75 3.74997 3.75 4.96997V15.88C3.75 17.11 4.76 18.1 6 18.1H6.75999C7.75999 18.1 8.7 18.4899 9.41 19.1899L11.12 20.88C11.61 21.36 12.4 21.36 12.89 20.88L14.6 19.1899C15.31 18.4899 16.25 18.1 17.25 18.1H18C19.24 18.1 20.25 17.1 20.25 15.88V4.96997C20.25 3.73997 19.24 2.75 18 2.75H6Z" fill="#292D32"/>
  <path d="M10.3802 14.51H7.70023C7.26023 14.51 6.85023 14.2999 6.59023 13.9399C6.34023 13.5999 6.28022 13.18 6.40022 12.78C6.75022 11.71 7.61022 11.13 8.37022 10.61C9.17022 10.07 9.62022 9.73002 9.62022 9.15002C9.62022 8.63002 9.20022 8.20996 8.68022 8.20996C8.16022 8.20996 7.74023 8.63002 7.74023 9.15002C7.74023 9.56002 7.40023 9.90002 6.99023 9.90002C6.58023 9.90002 6.24023 9.56002 6.24023 9.15002C6.24023 7.81002 7.33022 6.70996 8.68022 6.70996C10.0302 6.70996 11.1202 7.80002 11.1202 9.15002C11.1202 10.56 10.0602 11.28 9.21024 11.86C8.68024 12.22 8.18022 12.56 7.93022 13.01H10.3702C10.7802 13.01 11.1202 13.35 11.1202 13.76C11.1202 14.17 10.7902 14.51 10.3802 14.51Z" fill="#292D32"/>
  <path d="M16.0389 14.5099C15.6289 14.5099 15.2889 14.1699 15.2889 13.7599V13.0699H13.3289C13.3289 13.0699 13.3289 13.0699 13.3189 13.0699C12.8289 13.0699 12.3789 12.81 12.1289 12.39C11.8789 11.96 11.8789 11.4299 12.1289 11.0099C12.8089 9.83995 13.5989 8.50991 14.3189 7.34991C14.6389 6.83991 15.2489 6.60996 15.8189 6.76996C16.3889 6.93996 16.7889 7.45999 16.7789 8.05999V11.5799H16.9989C17.4089 11.5799 17.7489 11.9199 17.7489 12.3299C17.7489 12.7399 17.4089 13.0799 16.9989 13.0799H16.7889V13.77C16.7889 14.18 16.4589 14.5099 16.0389 14.5099ZM15.2889 8.63995C14.6989 9.59995 14.0889 10.6299 13.5389 11.5699H15.2889V8.63995Z" fill="#292D32"/>
</svg>

<svg viewBox="0 0 24 24" fill="none" xmlns="http://www.w3.org/2000/svg" height="1em" width="1em">
  <path d="M12 22.75c-.7 0-1.41-.27-1.94-.8l-1.71-1.69c-.43-.42-.99-.65-1.59-.65H6c-2.07 0-3.75-1.67-3.75-3.72V4.98c0-2.05 1.68-3.72 3.75-3.72h12c2.07 0 3.75 1.67 3.75 3.72v10.91c0 2.05-1.68 3.72-3.75 3.72h-.76c-.6 0-1.17.23-1.59.65l-1.71 1.69c-.53.53-1.24.8-1.94.8Zm-6-20c-1.24 0-2.25 1-2.25 2.22v10.91c0 1.23 1.01 2.22 2.25 2.22h.76c1 0 1.94.39 2.65 1.09l1.71 1.69c.49.48 1.28.48 1.77 0l1.71-1.69c.71-.7 1.65-1.09 2.65-1.09H18c1.24 0 2.25-1 2.25-2.22V4.97c0-1.23-1.01-2.22-2.25-2.22H6Z" fill="#292D32"/>
  <path d="M10.38 14.51H7.7c-.44 0-.85-.21-1.11-.57-.25-.34-.31-.76-.19-1.16.35-1.07 1.21-1.65 1.97-2.17.8-.54 1.25-.88 1.25-1.46a.939.939 0 1 0-1.88 0c0 .41-.34.75-.75.75s-.75-.34-.75-.75c0-1.34 1.09-2.44 2.44-2.44 1.35 0 2.44 1.09 2.44 2.44 0 1.41-1.06 2.13-1.91 2.71-.53.36-1.03.7-1.28 1.15h2.44c.41 0 .75.34.75.75s-.33.75-.74.75Zm5.659 0c-.41 0-.75-.34-.75-.75v-.69h-1.97c-.49 0-.94-.26-1.19-.68-.25-.43-.25-.96 0-1.38.68-1.17 1.47-2.5 2.19-3.66.32-.51.93-.74 1.5-.58.57.17.97.69.96 1.29v3.52h.22c.41 0 .75.34.75.75s-.34.75-.75.75h-.21v.69c0 .41-.33.74-.75.74Zm-.75-5.87c-.59.96-1.2 1.99-1.75 2.93h1.75V8.64Z" fill="#292D32"/>
</svg>
